!!!OTL: 233. Jetzund faellt die Nacht herein.
!!!ODT: 1790
!!!ARE: Europa, Mitteleuropa, Deutschland
!!!SCT: B0233
!!!TXL: @@DE
!!!YEM: Copyright 1995, estate of Helmut Schaffrath.
**kern	**text
*ICvox	*
*Ivox	*
*clefG2	*
*M4/4	*
*met(c)	*
*k[]	*
*C:	*
=1	=1
!LO:TX:a:t=Aria.	!
{4ee	Jetʒ-
4ee	-und
4ee	fällt
4ee	die
=2	=2
4.dd	Nacht
8cc	her-
2cc}	-ein,
=3	=3
{4b	Vieh
4cc	und
4dd	Menſchen
4ee	.
=4	=4
4.dd	ſchlafen
8cc	.
2cc}	ein,
=5	=5
{4ee	Jetʒ-
4ee	-und
4ee	fällt
4ee	die
=6	=6
4.dd	Nacht
8cc	her-
2cc}	-ein,
=7	=7
{4b	Vieh
4cc	und
4dd	Menſchen
4ee	.
=8	=8
4.dd	ſchlafen
8cc	.
2cc}	ein,
=9	=9
{4a	Vieh
4a	und
4a	Menſchen
4a	.
=10	=10
4a	ha-
4b	-ben
2cc}	Ruh,
=11	=11
{4b	ſchließen
4cc	.
4dd	ih-
4ee	-re
=12	=12
4.dd	Au-
8cc	-gen
2cc}	ʒu.
==	==
!!!AGN: Tageszeiten - Lied, Nacht
!!!GTL: Tageszeitenlieder
!!!ONB: ESAC (Essen Associative Code) Database: BOEHME
!!!AMT: simple quadruple
!!!AIN: vox
!!!EED: Helmut Schaffrath
!!!EEV: 1.0
!!Geſchriebenes Notenheft 1790 (einſtimmige Melodie für Flöte).
!!@@COMMENT:"Lied auf einem fl. Bl. vom Jahr 1616: "Ʒwey Weltliche, Newe Lieder. " (Das 1. ) Auch
!!gleichlautend um 1690: Tugendhaffter Jungfrauen rc. Ʒeiwertreiber". Nr. 34. - Es iſt eine Um-
!!und Nachbildung des Opitʒ'ſchen Liedes gleichen Anfangs; vermuthlich von Harsdörfer oder einem
!!Pegnitʒſchäfer gedichtet."
!!@@END:
!!!URL-scan: https://archive.org/details/BoehmeVtLieder1895/page/n209/mode/2up
!!!ENC: Anna Maria Matuszewska
!!!EEV: 2024/02/07
*-	*-
